X: 12
T: Haul away
%C: Mr. Gray
%R: reel, hornpipe
B: Mr. Gray "24 Country Dances for the Year 1805" p.6 #2
S: http://folkopedia.efdss.org/images/9/92/ThompsGray_24_1805.PDF  2013-12-2
Z: 2013 John Chambers <jc:trillian.mit.edu>
M: 2/4
L: 1/8
K: F
|:\
A>B c2 | A>B c2 | B>AG>F E>G C2 |\
A>B c2 | A>B c2 | BGFE | F2 fz :|
|:\
f>ef>e | f>ga>f | g>ec>a | b>ge>c |\
f>ef>e | f>ga>f | g>ge>c | f2 fz :|
% - - - - - - - - - - - - - - - - - - - - - - - - -
%%begintext align
%% Set & half right & left, the same back into
%% your places, lead down & up again, hands
%% 6 round.
%%endtext
